public/img/pencil.svg

<svg width="10" height="12" viewBox="0 0 10 12" fill="none" xmlns="http://www.w3.org/2000/svg">
<path d="M5.62408 2.49908L7.98063 4.14914L3.80382 10.1143L1.4484 8.46399L5.62408 2.49908ZM9.06234 1.39465L8.0114 0.658776C7.60525 0.374386 7.04461 0.473243 6.75904 0.879601L6.05415 1.88629L8.41071 3.53637L9.23293 2.36212C9.4535 2.04709 9.37735 1.61522 9.06234 1.39465ZM0.896522 11.4646C0.888996 11.6352 1.06306 11.7561 1.22012 11.6872L3.35705 10.7523L1.00163 9.10207L0.896522 11.4646Z" fill="#2A74DB"/>
</svg>

<svg width="10" height="12" fill="none" xmlns="http://www.w3.org/2000/svg"><path d="M5.624 2.5l2.357 1.65-4.177 5.964-2.356-1.65 4.176-5.965zm3.438-1.105L8.012.659a.9.9 0 0 0-1.253.22l-.705 1.007 2.357 1.65.822-1.174a.693.693 0 0 0-.17-.967zM.897 11.465a.231.231 0 0 0 .323.222l2.137-.935-2.355-1.65-.105 2.363z" fill="#2A74DB"/></svg>
